project/images/official/editable/523.svg

<?xml version="1.0" encoding="UTF-8" standalone="no"?>
<svg
   width="110.15816pt"
   height="35.776272pt"
   viewBox="0 0 110.15816 35.776272"
   version="1.1"
   id="svg3513"
   xmlns="http://www.w3.org/2000/svg"
   xmlns:svg="http://www.w3.org/2000/svg">
  <defs
     id="defs3517" />
  <g
     id="layer2"
     style="display:inline"
     transform="scale(0.74036996,1)" />
  <g
     id="layer1">
    <rect
       style="display:inline;fill:#ffffff;stroke:none;stroke-width:0;stroke-linecap:square;stroke-miterlimit:4;stroke-dasharray:none;stroke-opacity:1"
       id="rect3621"
       width="110.15816"
       height="35.776272"
       x="0"
       y="8.8817842e-16" />
    <rect
       style="display:inline;fill:none;stroke:#000000;stroke-width:0.223236;stroke-linecap:square;stroke-miterlimit:4;stroke-dasharray:none;stroke-opacity:1"
       id="rect3621-4"
       width="108.49678"
       height="34.468613"
       x="0.89951152"
       y="0.729029" />
  </g>
  <g
     id="layer3"
     style="display:inline">
    <g
       id="surface1"
       transform="translate(4.1107379,3.195839)">
      <path
         style="fill:#211e1e;fill-opacity:1;fill-rule:nonzero;stroke:none"
         d="M 17.507812,18.429688 V 1.191406 h 40.152344 v 17.238282 h -7.164062 l 0.671875,0.785156 h 16.71875 l 0.648437,-0.785156 H 63.09375 V 1.191406 l 39.71484,-0.226562 v 17.464844 h -2.64453 c 0.0664,0.05078 0.16016,0.128906 0.21875,0.1875 0.1211,0.113281 0.22657,0.234374 0.32032,0.375 0.0508,0.0625 0.10937,0.15625 0.15234,0.222656 h 1.39844 v 4.542968 h -0.85157 c -0.008,-0.183593 -0.0195,-0.433593 -0.0352,-0.605468 -0.33985,-3.421875 -3.261721,-5.992188 -6.703128,-5.976563 -3.417968,0.0078 -6.320312,2.554688 -6.640624,5.960938 -0.02344,0.179687 -0.03125,0.4375 -0.03906,0.621093 h -7.101563 c -0.01172,-0.203124 -0.01562,-0.492187 -0.03906,-0.695312 -0.34375,-3.453125 -3.3125,-6.023438 -6.789062,-6 -3.511719,0.01953 -6.519532,2.640625 -6.734376,6.152344 -0.0078,0.152344 -0.0078,0.382812 -0.0078,0.542968 H 66.691406 V 23.0625 L 62.53125,20.933594 h -4.589844 l -4.839844,1.792968 v 1.503907 h -1.941406 c 0,-0.15625 -0.0078,-0.386719 -0.01563,-0.546875 -0.222656,-3.230469 -2.820312,-5.84375 -6.058593,-5.851563 -3.234376,-0.01563 -5.847657,2.5625 -6.097657,5.78125 -0.01563,0.179688 -0.02344,0.4375 -0.02344,0.617188 H 16.335938 c 0,-0.15625 -0.0078,-0.378907 -0.02344,-0.53125 C 16.054688,20.378906 13.28125,17.816406 9.957031,17.851562 6.738281,17.898438 4.125,20.429688 3.816406,23.640625 3.800781,23.8125 3.789062,24.058594 3.789062,24.230469 H 0.230469 v -2.253907 l 1.230469,-0.0078 0.878906,-6.546875 C 2.355469,15.277344 2.375,15.117188 2.398438,14.96875 2.433594,14.722656 2.492188,14.390625 2.578125,14.167969 2.6875,13.867188 2.875,13.59375 3.132812,13.40625 c 0.222657,-0.167969 0.503907,-0.265625 0.777344,-0.316406 0.085938,-0.01563 0.203125,-0.03125 0.289063,-0.04687 L 6.753906,7.726562 C 6.804688,7.625 6.863281,7.507812 6.910156,7.402344 7.003906,7.222656 7.148438,6.992188 7.300781,6.863281 7.464844,6.730469 7.675781,6.652344 7.882812,6.617188 8.035156,6.59375 8.273438,6.589844 8.421875,6.589844 h 8.214844 v 12.625 h 22.277343 l 0.683594,-0.785156 H 17.507812"
         id="path1740" />
      <path
         style="fill:#211e1e;fill-opacity:1;fill-rule:nonzero;stroke:none"
         d="m 10.015625,18.863281 c 2.902344,-0.02344 5.277344,2.324219 5.269531,5.230469 -0.0078,2.835938 -2.296875,5.140625 -5.132812,5.171875 C 7.257812,29.292969 4.890625,26.96875 4.882812,24.066406 4.875,21.214844 7.15625,18.875 10.015625,18.863281"
         id="path1742" />
      <path
         style="fill:#211e1e;fill-opacity:1;fill-rule:nonzero;stroke:none"
         d="m 45.109375,19.042969 c 2.769531,0.01172 4.980469,2.28125 5.015625,5.050781 0.03516,2.808594 -2.179688,5.125 -4.988281,5.171875 -2.851563,0.04297 -5.183594,-2.246094 -5.195313,-5.105469 -0.02344,-2.84375 2.316406,-5.132812 5.167969,-5.117187"
         id="path1744" />
      <path
         style="fill:#211e1e;fill-opacity:1;fill-rule:nonzero;stroke:none"
         d="m 74.050781,18.386719 c 3.007813,-0.01563 5.457031,2.40625 5.480469,5.40625 0.01172,3.015625 -2.433594,5.472656 -5.449219,5.476562 -3.007812,0.0078 -5.449219,-2.425781 -5.457031,-5.425781 -0.0078,-3.007812 2.425781,-5.449219 5.425781,-5.457031"
         id="path1746" />
      <path
         style="fill:#211e1e;fill-opacity:1;fill-rule:nonzero;stroke:none"
         d="m 94.65625,18.421875 c 2.988281,-0.0078 5.40625,2.40625 5.4375,5.386719 0.0195,3.007812 -2.382812,5.484375 -5.390625,5.5 -3.023437,0.0039 -5.457031,-2.464844 -5.441406,-5.484375 0.01172,-2.980469 2.417969,-5.402344 5.394531,-5.402344"
         id="path1748" />
      <path
         style="fill:#ffffff;fill-opacity:1;fill-rule:nonzero;stroke:none"
         d="M 7.46875,8.925781 H 8.800781 L 6.949219,13.042969 H 5.523438 L 7.46875,8.925781"
         id="path1750" />
      <path
         style="fill:#ffffff;fill-opacity:1;fill-rule:nonzero;stroke:none"
         d="m 9.972656,8.925781 h 4.125 v 4.117188 H 8.109375 L 9.972656,8.925781"
         id="path1752" />
      <path
         style="fill:#ffffff;fill-opacity:1;fill-rule:nonzero;stroke:none"
         d="m 79.546875,18.425781 h 9.769531 l -0.757812,0.785157 h -8.328125 l -0.683594,-0.785157"
         id="path1754" />
      <path
         style="fill:#ffffff;fill-opacity:1;fill-rule:nonzero;stroke:none"
         d="m 10.050781,22.242188 c 1.03125,0 1.851563,0.851562 1.835938,1.882812 -0.0078,1 -0.8125,1.8125 -1.8125,1.820312 -1.03125,0.01172 -1.863281,-0.8125 -1.871094,-1.835937 -0.00781,-1.03125 0.820313,-1.871094 1.847656,-1.867187"
         id="path1756" />
      <path
         style="fill:#ffffff;fill-opacity:1;fill-rule:nonzero;stroke:none"
         d="m 45.136719,22.214844 c 1.039062,-0.01563 1.902343,0.816406 1.902343,1.851562 0,1.035156 -0.859374,1.871094 -1.902343,1.863282 -1.015625,-0.0078 -1.84375,-0.828126 -1.84375,-1.847657 -0.0039,-1.023437 0.824219,-1.859375 1.84375,-1.867187"
         id="path1758" />
      <path
         style="fill:#ffffff;fill-opacity:1;fill-rule:nonzero;stroke:none"
         d="m 74.074219,21.941406 c 1.058593,-0.01563 1.964843,0.816406 1.945312,1.871094 -0.02344,1.050781 -0.917969,1.859375 -1.960937,1.824219 -0.992188,-0.03125 -1.789063,-0.84375 -1.789063,-1.835938 0.0078,-1.007812 0.796875,-1.835937 1.804688,-1.859375"
         id="path1760" />
      <path
         style="fill:#ffffff;fill-opacity:1;fill-rule:nonzero;stroke:none"
         d="m 94.660156,21.96875 c 1.019532,0.01172 1.863282,0.824219 1.871094,1.851562 0.01172,1.03125 -0.820312,1.871094 -1.859375,1.886719 -1.058594,0.0078 -1.917969,-0.84375 -1.914063,-1.902343 0.01563,-1.027344 0.871094,-1.839844 1.902344,-1.835938"
         id="path1762" />
    </g>
  </g>
</svg>

<?xml version="1.0" encoding="UTF-8"?>
<svg xmlns="http://www.w3.org/2000/svg" xmlns:xlink="http://www.w3.org/1999/xlink" width="103pt" height="30pt" viewBox="0 0 103 30" version="1.1">
<g id="surface1">
<path style=" stroke:none;fill-rule:nonzero;fill:rgb(13.729858%,12.159729%,12.548828%);fill-opacity:1;" d="M 17.507812 18.429688 L 17.507812 1.191406 L 57.660156 1.191406 L 57.660156 18.429688 L 50.496094 18.429688 L 51.167969 19.214844 L 67.886719 19.214844 L 68.535156 18.429688 L 63.09375 18.429688 L 63.09375 1.191406 L 102.808594 0.964844 L 102.808594 18.429688 L 100.164062 18.429688 C 100.230469 18.480469 100.324219 18.558594 100.382812 18.617188 C 100.503906 18.730469 100.609375 18.851562 100.703125 18.992188 C 100.753906 19.054688 100.8125 19.148438 100.855469 19.214844 L 102.253906 19.214844 L 102.253906 23.757812 L 101.402344 23.757812 C 101.394531 23.574219 101.382812 23.324219 101.367188 23.152344 C 101.027344 19.730469 98.105469 17.160156 94.664062 17.175781 C 91.246094 17.183594 88.34375 19.730469 88.023438 23.136719 C 88 23.316406 87.992188 23.574219 87.984375 23.757812 L 80.882812 23.757812 C 80.871094 23.554688 80.867188 23.265625 80.84375 23.0625 C 80.5 19.609375 77.53125 17.039062 74.054688 17.0625 C 70.542969 17.082031 67.535156 19.703125 67.320312 23.214844 C 67.3125 23.367188 67.3125 23.597656 67.3125 23.757812 L 66.691406 23.757812 L 66.691406 23.0625 L 62.53125 20.933594 L 57.941406 20.933594 L 53.101562 22.726562 L 53.101562 24.230469 L 51.160156 24.230469 C 51.160156 24.074219 51.152344 23.84375 51.144531 23.683594 C 50.921875 20.453125 48.324219 17.839844 45.085938 17.832031 C 41.851562 17.816406 39.238281 20.394531 38.988281 23.613281 C 38.972656 23.792969 38.964844 24.050781 38.964844 24.230469 L 16.335938 24.230469 C 16.335938 24.074219 16.328125 23.851562 16.3125 23.699219 C 16.054688 20.378906 13.28125 17.816406 9.957031 17.851562 C 6.738281 17.898438 4.125 20.429688 3.816406 23.640625 C 3.800781 23.8125 3.789062 24.058594 3.789062 24.230469 L 0.230469 24.230469 L 0.230469 21.976562 L 1.460938 21.96875 L 2.339844 15.421875 C 2.355469 15.277344 2.375 15.117188 2.398438 14.96875 C 2.433594 14.722656 2.492188 14.390625 2.578125 14.167969 C 2.6875 13.867188 2.875 13.59375 3.132812 13.40625 C 3.355469 13.238281 3.636719 13.140625 3.910156 13.089844 C 3.996094 13.074219 4.113281 13.058594 4.199219 13.042969 L 6.753906 7.726562 C 6.804688 7.625 6.863281 7.507812 6.910156 7.402344 C 7.003906 7.222656 7.148438 6.992188 7.300781 6.863281 C 7.464844 6.730469 7.675781 6.652344 7.882812 6.617188 C 8.035156 6.59375 8.273438 6.589844 8.421875 6.589844 L 16.636719 6.589844 L 16.636719 19.214844 L 38.914062 19.214844 L 39.597656 18.429688 L 17.507812 18.429688 "/>
<path style=" stroke:none;fill-rule:nonzero;fill:rgb(13.729858%,12.159729%,12.548828%);fill-opacity:1;" d="M 10.015625 18.863281 C 12.917969 18.839844 15.292969 21.1875 15.285156 24.09375 C 15.277344 26.929688 12.988281 29.234375 10.152344 29.265625 C 7.257812 29.292969 4.890625 26.96875 4.882812 24.066406 C 4.875 21.214844 7.15625 18.875 10.015625 18.863281 "/>
<path style=" stroke:none;fill-rule:nonzero;fill:rgb(13.729858%,12.159729%,12.548828%);fill-opacity:1;" d="M 45.109375 19.042969 C 47.878906 19.054688 50.089844 21.324219 50.125 24.09375 C 50.160156 26.902344 47.945312 29.21875 45.136719 29.265625 C 42.285156 29.308594 39.953125 27.019531 39.941406 24.160156 C 39.917969 21.316406 42.257812 19.027344 45.109375 19.042969 "/>
<path style=" stroke:none;fill-rule:nonzero;fill:rgb(13.729858%,12.159729%,12.548828%);fill-opacity:1;" d="M 74.050781 18.386719 C 77.058594 18.371094 79.507812 20.792969 79.53125 23.792969 C 79.542969 26.808594 77.097656 29.265625 74.082031 29.269531 C 71.074219 29.277344 68.632812 26.84375 68.625 23.84375 C 68.617188 20.835938 71.050781 18.394531 74.050781 18.386719 "/>
<path style=" stroke:none;fill-rule:nonzero;fill:rgb(13.729858%,12.159729%,12.548828%);fill-opacity:1;" d="M 94.65625 18.421875 C 97.644531 18.414062 100.0625 20.828125 100.09375 23.808594 C 100.113281 26.816406 97.710938 29.292969 94.703125 29.308594 C 91.679688 29.3125 89.246094 26.84375 89.261719 23.824219 C 89.273438 20.84375 91.679688 18.421875 94.65625 18.421875 "/>
<path style=" stroke:none;fill-rule:nonzero;fill:rgb(100%,100%,100%);fill-opacity:1;" d="M 7.46875 8.925781 L 8.800781 8.925781 L 6.949219 13.042969 L 5.523438 13.042969 L 7.46875 8.925781 "/>
<path style=" stroke:none;fill-rule:nonzero;fill:rgb(100%,100%,100%);fill-opacity:1;" d="M 9.972656 8.925781 L 14.097656 8.925781 L 14.097656 13.042969 L 8.109375 13.042969 L 9.972656 8.925781 "/>
<path style=" stroke:none;fill-rule:nonzero;fill:rgb(100%,100%,100%);fill-opacity:1;" d="M 79.546875 18.425781 L 89.316406 18.425781 L 88.558594 19.210938 L 80.230469 19.210938 L 79.546875 18.425781 "/>
<path style=" stroke:none;fill-rule:nonzero;fill:rgb(100%,100%,100%);fill-opacity:1;" d="M 10.050781 22.242188 C 11.082031 22.242188 11.902344 23.09375 11.886719 24.125 C 11.878906 25.125 11.074219 25.9375 10.074219 25.945312 C 9.042969 25.957031 8.210938 25.132812 8.203125 24.109375 C 8.195312 23.078125 9.023438 22.238281 10.050781 22.242188 "/>
<path style=" stroke:none;fill-rule:nonzero;fill:rgb(100%,100%,100%);fill-opacity:1;" d="M 45.136719 22.214844 C 46.175781 22.199219 47.039062 23.03125 47.039062 24.066406 C 47.039062 25.101562 46.179688 25.9375 45.136719 25.929688 C 44.121094 25.921875 43.292969 25.101562 43.292969 24.082031 C 43.289062 23.058594 44.117188 22.222656 45.136719 22.214844 "/>
<path style=" stroke:none;fill-rule:nonzero;fill:rgb(100%,100%,100%);fill-opacity:1;" d="M 74.074219 21.941406 C 75.132812 21.925781 76.039062 22.757812 76.019531 23.8125 C 75.996094 24.863281 75.101562 25.671875 74.058594 25.636719 C 73.066406 25.605469 72.269531 24.792969 72.269531 23.800781 C 72.277344 22.792969 73.066406 21.964844 74.074219 21.941406 "/>
<path style=" stroke:none;fill-rule:nonzero;fill:rgb(100%,100%,100%);fill-opacity:1;" d="M 94.660156 21.96875 C 95.679688 21.980469 96.523438 22.792969 96.53125 23.820312 C 96.542969 24.851562 95.710938 25.691406 94.671875 25.707031 C 93.613281 25.714844 92.753906 24.863281 92.757812 23.804688 C 92.773438 22.777344 93.628906 21.964844 94.660156 21.96875 "/>
</g>
</svg>
